!!!!SEGMENT: pl-wtm--r-1544--001_stefani-jozef--msza-no-9-kyrie.krn
!!!cenid: 18xx:1793
!!!COM: Stefani, Józef
!!!COM-rismid: pe30024097
!!!CDT: 1800/04/16-1876/03/19
!!!CNT: Polish
!!!OPR: Msza No 9
!!!OTL: Kyrie
!!!OMV: 001
!!!PDT: 1846
!!!AGN: Sacred; Mass
!!!SMS-siglum: PL-Wtm
!!!SMS-shelfmark: R 1544
!!!SMS-shelfwork: 001-001 M
!!!SMS-variant:
!!!SMS-altvar:
!!!NIFC-rismid: 1001120493
!!!URL-scan: http://repozytorium.nifc.pl/skany/pl-wtm-nut--r1544
!!!ONB-nifc: UWAGA: części Mszy: 1. Kyrie, 2. Gloria, 3. Graduale, 4. Credo, 5. Offertorium, 6. Sanctus, 7. Benedictus, 8. Agnus Dei, 9. Dona nobis
!!!OMD: Allegro moderato.
**kern	**dynam	**kern	**dynam	**kern	**text	**kern	**text	**kern	**dynam	**kern	**text	**dynam	**kern	**dynam	**kern	**dynam	**kern	**dynam	**kern	**dynam	**kern	**dynam	**kern	**dynam	**kern	**dynam	**kern	**dynam	**kern	**dynam
*part15	*part15	*part14	*part14	*part13	*part13	*part12	*part12	*part11	*part11	*part10	*part10	*part10	*part9	*part9	*part8	*part8	*part7	*part7	*part6	*part6	*part5	*part5	*part4	*part4	*part3	*part3	*part2	*part2	*part1	*part1
*staff15	*	*staff14	*	*staff13	*staff13	*staff12	*staff12	*staff11	*	*staff10	*staff10	*	*staff9	*	*staff8	*	*staff7	*	*staff6	*	*staff5	*	*staff4	*	*staff3	*	*staff2	*	*staff1	*
*	*	*	*	*group2	*	*group2	*	*group2	*	*group2	*	*	*	*	*	*	*	*	*	*	*group1	*	*group1	*	*group1	*	*group1	*	*group1	*
*I"Tympani	*	*I"Basſi	*	*I"Basſo	*	*I"Tenore	*	*I"Soprano 2o	*	*I"Soprano 1o	*	*	*I"Viole	*	*	*	*I"Violini	*	*I"Trombe in C	*	*I"Fagotti	*	*I"Corni in C	*	*I"Clarinetti in C	*	*I"Oboe	*	*I"Flauto	*
*stria1	*	*	*	*	*	*	*	*	*	*	*	*	*	*	*	*	*	*	*	*	*	*	*	*	*	*	*	*	*	*
*clefF1	*	*clefF4	*	*clefF4	*	*clefC4	*	*clefG2	*	*clefG2	*	*	*clefC3	*	*clefG2	*	*clefG2	*	*clefG2	*	*clefF4	*	*clefG2	*	*clefG2	*	*clefG2	*	*clefG2	*
*	*	*	*	*	*	*	*	*	*	*	*	*	*	*	*	*	*	*	*	*	*	*	*Trd0c0	*	*	*	*	*	*	*
*k[]	*	*k[]	*	*k[]	*	*k[]	*	*k[]	*	*k[]	*	*	*k[]	*	*k[]	*	*k[]	*	*k[]	*	*k[]	*	*k[]	*	*k[]	*	*k[]	*	*k[]	*
*C:	*	*C:	*	*C:	*	*C:	*	*C:	*	*C:	*	*	*C:	*	*C:	*	*C:	*	*C:	*	*C:	*	*C:	*	*C:	*	*C:	*	*C:	*
*M4/4	*	*M4/4	*	*M4/4	*	*M4/4	*	*M4/4	*	*M4/4	*	*	*M4/4	*	*M4/4	*	*M4/4	*	*M4/4	*	*M4/4	*	*M4/4	*	*M4/4	*	*M4/4	*	*M4/4	*
*met(c)	*	*met(c)	*	*met(c)	*	*met(c)	*	*met(c)	*	*met(c)	*	*	*met(c)	*	*met(c)	*	*met(c)	*	*met(c)	*	*met(c)	*	*met(c)	*	*met(c)	*	*met(c)	*	*met(c)	*
*all\right	*	*all\right	*	*all\right	*	*all\right	*	*all\right	*	*all\right	*	*	*all\right	*	*all\right	*	*all\right	*	*all\right	*	*all\right	*	*all\right	*	*all\right	*	*all\right	*	*all\right	*
=1	=1	=1	=1	=1	=1	=1	=1	=1	=1	=1	=1	=1	=1	=1	=1	=1	=1	=1	=1	=1	=1	=1	=1	=1	=1	=1	=1	=1	=1	=1
.	.	(32qqGG/LLL	.	.	.	.	.	.	.	.	.	.	(32qqG/LLL	.	(32qqG/LLL	.	(32qqG/LLL	.	.	.	.	.	.	.	.	.	.	.	.	.
.	.	32qqAA/	.	.	.	.	.	.	.	.	.	.	32qqA/	.	32qqA/	.	32qqA/	.	.	.	.	.	.	.	.	.	.	.	.	.
.	.	32qqBB/JJJ	.	.	.	.	.	.	.	.	.	.	32qqB/JJJ	.	32qqB/JJJ	.	32qqB/JJJ	.	.	.	.	.	.	.	.	.	.	.	.	.
!	!	!	!LO:DY:rj	!	!	!	!	!	!	!	!	!	!	!LO:DY:rj	!	!LO:DY:rj	!	!LO:DY:rj	!	!	!	!	!	!	!	!	!	!	!	!
1r	.	8C/L)	f	1r	.	1r	.	1r	.	1r	.	.	8c/L)	f	8c/L)	f	8c/L)	f	1r	.	1r	.	1r	.	1r	.	1r	.	1r	.
.	.	(8C'/	.	.	.	.	.	.	.	.	.	.	8c'/	p	8c/	p	(8c'/	p	.	.	.	.	.	.	.	.	.	.	.	.
!	!	!	!LO:DY:rj	!	!	!	!	!	!	!	!	!	!	!	!	!	!	!	!	!	!	!	!	!	!	!	!	!	!	!
.	.	8C'/	p	.	.	.	.	.	.	.	.	.	8c'/	.	8c/	.	8c'/	.	.	.	.	.	.	.	.	.	.	.	.	.
.	.	8C'/J	.	.	.	.	.	.	.	.	.	.	8c'/J	.	8c/J	.	8c'/J	.	.	.	.	.	.	.	.	.	.	.	.	.
*	*	*tremolo	*	*	*	*	*	*	*	*	*	*	*	*	*tremolo	*	*	*	*	*	*	*	*	*	*	*	*	*	*	*
!	!	!LO:TX:b:t=....	!	!	!	!	!	!	!	!	!	!	!	!	!	!	!	!	!	!	!	!	!	!	!	!	!	!	!	!
!	!	!LO:TX:t=P:problem:łuk i kropki pod tremolo	!	!	!	!	!	!	!	!	!	!	!	!	!	!	!	!	!	!	!	!	!	!	!	!	!	!	!	!
.	.	8C'/L	.	.	.	.	.	.	.	.	.	.	8B/L	.	8c/L	.	8d'/L	.	.	.	.	.	.	.	.	.	.	.	.	.
.	.	8C'/	.	.	.	.	.	.	.	.	.	.	8B/	.	8c/	.	8d'/	.	.	.	.	.	.	.	.	.	.	.	.	.
.	.	8C'/	.	.	.	.	.	.	.	.	.	.	8B-X/	.	8c/	.	8e'/	.	.	.	.	.	.	.	.	.	.	.	.	.
.	.	8C'/)J	.	.	.	.	.	.	.	.	.	.	8B-/J	.	8c/J	.	8e'/J)	.	.	.	.	.	.	.	.	.	.	.	.	.
=2	=2	=2	=2	=2	=2	=2	=2	=2	=2	=2	=2	=2	=2	=2	=2	=2	=2	=2	=2	=2	=2	=2	=2	=2	=2	=2	=2	=2	=2	=2
*	*	*	*	*	*	*	*	*	*	*	*	*	*tremolo	*	*	*	*	*	*	*	*	*	*	*	*	*	*	*	*	*
*	*	*	*	*	*	*	*	*	*	*	*	*	*	*	*	*	*tremolo	*	*	*	*	*	*	*	*	*	*	*	*	*
!	!	!	!	!	!	!	!	!	!	!	!	!	!	!	!	!	!LO:TX:b:t=....	!	!	!	!	!	!	!	!	!	!	!	!	!
!	!	!	!	!	!	!	!	!	!	!	!	!	!	!	!	!	!LO:TX:t=P:problem:łuk i kropki pod tremolo	!	!	!	!	!	!	!	!	!	!	!	!	!
1r	.	8CL	.	1r	.	1r	.	1r	.	1r	.	.	8A/L	.	8cL	.	8f'/L	.	1r	.	1r	.	1r	.	1r	.	1r	.	1r	.
.	.	8C	.	.	.	.	.	.	.	.	.	.	8A/	.	8c	.	8f'/	.	.	.	.	.	.	.	.	.	.	.	.	.
.	.	8C	.	.	.	.	.	.	.	.	.	.	8A/	.	8c	.	8f'/	.	.	.	.	.	.	.	.	.	.	.	.	.
.	.	8C	.	.	.	.	.	.	.	.	.	.	8A/J	.	8c	.	8f'/J	.	.	.	.	.	.	.	.	.	.	.	.	.
!	!	!	!	!	!	!	!	!	!	!	!	!	!	!	!	!	!LO:TX:b:t=....	!	!	!	!	!	!	!	!	!	!	!	!	!
!	!	!	!	!	!	!	!	!	!	!	!	!	!	!	!	!	!LO:TX:t=P:problem:łuk i kropki pod tremolo	!	!	!	!	!	!	!	!	!	!	!	!	!
.	.	8C	.	.	.	.	.	.	.	.	.	.	8G/L	.	8c	.	8e'/L	.	.	.	.	.	.	.	.	.	.	.	.	.
.	.	8C	.	.	.	.	.	.	.	.	.	.	8G/	.	8c	.	8e'/	.	.	.	.	.	.	.	.	.	.	.	.	.
.	.	8C	.	.	.	.	.	.	.	.	.	.	8G/	.	8c	.	8e'/	.	.	.	.	.	.	.	.	.	.	.	.	.
.	.	8CJ	.	.	.	.	.	.	.	.	.	.	8G/J	.	8cJ	.	8e'/J	.	.	.	.	.	.	.	.	.	.	.	.	.
=3	=3	=3	=3	=3	=3	=3	=3	=3	=3	=3	=3	=3	=3	=3	=3	=3	=3	=3	=3	=3	=3	=3	=3	=3	=3	=3	=3	=3	=3	=3
*	*	*2\right	*	*	*	*	*	*	*	*	*	*	*	*	*	*	*	*	*	*	*	*	*	*	*	*	*	*	*	*
1r	.	8F\L	.	1r	.	1r	.	1r	.	1r	.	.	8A/L	.	8c/L	.	8d/L	.	1r	.	1r	.	1r	.	1r	.	1r	.	1r	.
.	.	8F\	.	.	.	.	.	.	.	.	.	.	8A/	.	8c/	.	8d/	.	.	.	.	.	.	.	.	.	.	.	.	.
.	.	8F\	.	.	.	.	.	.	.	.	.	.	8A/	.	8c/	.	8d/	.	.	.	.	.	.	.	.	.	.	.	.	.
.	.	8F\J	.	.	.	.	.	.	.	.	.	.	8A/J	.	8c/J	.	8d/J	.	.	.	.	.	.	.	.	.	.	.	.	.
.	.	8F#X\L	.	.	.	.	.	.	.	.	.	.	8c/L	.	8e-X/L	.	8a/L	.	.	.	.	.	.	.	.	.	.	.	.	.
.	.	8F#X\	.	.	.	.	.	.	.	.	.	.	8c/	.	8e-X/	.	8a/	.	.	.	.	.	.	.	.	.	.	.	.	.
.	.	8F#X\	.	.	.	.	.	.	.	.	.	.	8c/	.	8e-X/	.	8a/	.	.	.	.	.	.	.	.	.	.	.	.	.
.	.	8F#X\J	.	.	.	.	.	.	.	.	.	.	8c/J	.	8e-X/J	.	8a/J	.	.	.	.	.	.	.	.	.	.	.	.	.
!!LO:PB:g=original
=4	=4	=4	=4	=4	=4	=4	=4	=4	=4	=4	=4	=4	=4	=4	=4	=4	=4	=4	=4	=4	=4	=4	=4	=4	=4	=4	=4	=4	=4	=4
1r	.	8G\L	.	1r	.	1r	.	1r	.	1r	.	.	8c/L	.	8dL	.	8d/L	.	1r	.	1r	.	1r	.	1r	.	1r	.	1r	.
.	.	8G\	.	.	.	.	.	.	.	.	.	.	8c/	.	8d	.	8d/	.	.	.	.	.	.	.	.	.	.	.	.	.
.	.	8G\	.	.	.	.	.	.	.	.	.	.	8c/	.	8d	.	8d/	.	.	.	.	.	.	.	.	.	.	.	.	.
.	.	8G\J	.	.	.	.	.	.	.	.	.	.	8c/J	.	8d	.	8d/J	.	.	.	.	.	.	.	.	.	.	.	.	.
.	.	8GG/L	.	.	.	.	.	.	.	.	.	.	8B/L	.	8d	.	8g/L	.	.	.	.	.	.	.	.	.	.	.	.	.
.	.	8GG/	.	.	.	.	.	.	.	.	.	.	8B/	.	8d	.	8g/	.	.	.	.	.	.	.	.	.	.	.	.	.
.	.	8GG/	.	.	.	.	.	.	.	.	.	.	8B/	.	8d	.	8g/	.	.	.	.	.	.	.	.	.	.	.	.	.
.	.	8GG/J	.	.	.	.	.	.	.	.	.	.	8B/J	.	8dJ	.	8g/J	.	.	.	.	.	.	.	.	.	.	.	.	.
*	*	*Xtremolo	*	*	*	*	*	*	*	*	*	*	*Xtremolo	*	*Xtremolo	*	*Xtremolo	*	*	*	*	*	*	*	*	*	*	*	*	*
=5	=5	=5	=5	=5	=5	=5	=5	=5	=5	=5	=5	=5	=5	=5	=5	=5	=5	=5	=5	=5	=5	=5	=5	=5	=5	=5	=5	=5	=5	=5
*	*	*	*	*	*	*	*	*	*	*	*	*	*	*	*	*	*	*	*	*	*	*	*	*	*^	*	*	*	*	*
*	*	*	*	*	*	*	*	*	*	*	*	*	*	*	*	*	*	*	*	*	*	*	*	*	*2\right	*	*	*2\right	*	*2\right	*
!	!	!	!	!	!	!	!	!	!	!	!	!	!	!	!	!	!	!	!	!	!	!	!	!LO:DY:rj	!	!	!	!	!LO:DY:rj	!	!
1r	.	4C	.	1r	.	1r	.	1r	.	1r	.	.	4c\	.	4c/	.	4e/	.	1r	.	1r	.	[1cc [1c	p	1cc	2cc\	.	(2cc\	p	(2cc\	.
.	.	4r	.	.	.	.	.	.	.	.	.	.	4r	.	4r	.	4r	.	.	.	.	.	.	.	.	.	.	.	.	.	.
.	.	2r	.	.	.	.	.	.	.	.	.	.	2r	.	2r	.	2r	.	.	.	.	.	.	.	.	4b\	.	4dd\	.	4dd\	.
.	.	.	.	.	.	.	.	.	.	.	.	.	.	.	.	.	.	.	.	.	.	.	.	.	.	4b-X\	.	4ee\	.	4ee\	.
=6	=6	=6	=6	=6	=6	=6	=6	=6	=6	=6	=6	=6	=6	=6	=6	=6	=6	=6	=6	=6	=6	=6	=6	=6	=6	=6	=6	=6	=6	=6	=6
1r	.	1r	.	1r	.	1r	.	1r	.	1r	.	.	1r	.	1r	.	1r	.	1r	.	1r	.	1cc] 1c]	.	1cc	2a\	.	2ff\	.	2ff\	.
.	.	.	.	.	.	.	.	.	.	.	.	.	.	.	.	.	.	.	.	.	.	.	.	.	.	2g\	.	2ee\)	.	2ee\)	.
*	*	*	*	*	*	*	*	*	*	*	*	*	*	*	*	*	*	*	*	*	*	*	*	*	*v	*v	*	*	*	*	*
=7	=7	=7	=7	=7	=7	=7	=7	=7	=7	=7	=7	=7	=7	=7	=7	=7	=7	=7	=7	=7	=7	=7	=7	=7	=7	=7	=7	=7	=7	=7
*	*	*	*	*	*	*	*	*	*	*	*	*	*	*	*	*	*	*	*	*	*	*	*^	*	*	*	*	*	*	*
*	*	*	*	*	*	*	*	*	*	*	*	*	*	*	*	*	*	*	*	*	*2\right	*	*	*	*	*	*	*	*	*	*
1r	.	1r	.	1r	.	1r	.	1r	.	1r	.	.	1r	.	1r	.	1r	.	2r	.	(2F\	<	2r	2ryy	.	2cc 2a/	.	2dd\	.	2dd\	.
*	*	*	*	*	*	*	*	*	*	*	*	*	*	*	*	*	*	*	*	*	*	*	*	*2\right	*	*	*	*	*	*	*
.	.	.	.	.	.	.	.	.	.	.	.	.	.	.	.	.	.	.	.	.	.	[	.	.	.	.	.	.	.	.	.
.	.	.	.	.	.	.	.	.	.	.	.	.	.	.	.	.	.	.	2a 2f#X/	.	2F#X\)	>	2ee-X/	2cc\	.	[2cc 2a/	.	2ee-X^<\	.	(2aa^<\	.
.	.	.	.	.	.	.	.	.	.	.	.	.	.	.	.	.	.	.	.	.	.	]	.	.	.	.	.	.	.	.	.
=8	=8	=8	=8	=8	=8	=8	=8	=8	=8	=8	=8	=8	=8	=8	=8	=8	=8	=8	=8	=8	=8	=8	=8	=8	=8	=8	=8	=8	=8	=8	=8
*	*	*	*	*	*	*	*	*	*	*	*	*	*	*	*	*	*	*	*	*	*	*	*	*	*	*^	*	*	*	*	*
2r	.	2r	.	2r	.	2r	.	2r	.	2r	.	.	2r	.	2r	.	2r	.	4g/	.	2G\	.	1dd	1g	.	2cc/]	1g	.	2dd\	.	2dd\	.
.	.	.	.	.	.	.	.	.	.	.	.	.	.	.	.	.	.	.	8r	.	.	.	.	.	.	.	.	.	.	.	.	.
.	.	.	.	.	.	.	.	.	.	.	.	.	.	.	.	.	.	.	16g/LL	.	.	.	.	.	.	.	.	.	.	.	.	.
.	.	.	.	.	.	.	.	.	.	.	.	.	.	.	.	.	.	.	16g/JJ	.	.	.	.	.	.	.	.	.	.	.	.	.
4r	<	4r	.	4r	.	4r	.	4r	.	4r	.	.	4r	.	4r	.	4r	.	4g/	.	2GG/	.	.	.	.	2b/	.	.	2gg\	.	2gg\)	.
.	.	.	.	.	.	.	.	.	.	.	.	.	.	.	.	.	.	<	.	.	.	.	.	.	.	.	.	.	.	.	.	.
!LO:SIC:s=4GG\	!	!	!	!	!	!	!	!	!	!	!	!	!	!	!	!	!	!	!	!	!	!	!	!	!	!	!	!	!	!	!	!
4Re\	.	4GG/	.	4G\	.	4B\	.	4d/	.	4g/	Z_od-	.	4B/	.	4d/	.	4g/	.	4g/	.	.	.	.	.	.	.	.	.	.	.	.	.
!	!	!	!	!	!	!	!	!	!	!	!	!	!	!	!	!	!	!	!	!	!	!	!	!	!LO:DY:a	!	!	!	!	!	!	!
.	[	.	.	.	.	.	.	.	.	.	.	.	.	.	.	.	.	[	.	.	.	f	.	.	f	.	.	.	.	.	.	f
=9	=9	=9	=9	=9	=9	=9	=9	=9	=9	=9	=9	=9	=9	=9	=9	=9	=9	=9	=9	=9	=9	=9	=9	=9	=9	=9	=9	=9	=9	=9	=9	=9
*	*	*	*	*	*	*	*	*	*	*	*	*	*	*	*	*	*	*	*^	*	*	*	*	*	*	*	*	*	*	*	*	*
!LO:SIC:s=4CT/	!LO:DY:rj	!	!LO:DY:rj	!	!	!	!	!	!	!	!	!	!	!LO:DY:rj	!	!LO:DY:rj	!	!LO:DY:rj	!	!	!	!	!	!	!	!	!	!	!	!	!LO:DY:a	!	!
4Ret/	f	4.C/	f	4C/	.	4c\	.	(4e/	.	4g/	-gło-	.	4.c/	f	(4e/	f	(4g/	f	4g 4e/	2ryy	.	4.C/	.	4.ee\	4.cc\	.	4.cc/	4.g\	.	(4ee\	.	(4gg\	.
!LO:SIC:s=8C/	!	!	!	!	!	!	!	!	!	!	!	!	!	!	!	!	!	!	!	!	!	!	!	!	!	!	!	!	!	!	!	!	!
8Re/	.	.	.	8C/	.	8c\	.	8c/)	.	8e/	-sem	.	.	.	8c/)	.	8e/)	.	8e 8c/	.	.	.	.	.	.	.	.	.	.	8cc\)	.	8ee\)	.
8r	.	8r	.	8r	.	8r	.	8r	.	8r	.	.	8r	.	8r	.	8r	.	8r	.	.	8r	.	8r	8ryy	.	8r	8ryy	.	8r	.	8r	.
!LO:SIC:s=4CT/	!	!	!	!	!	!	!	!	!	!	!	!	!	!	!	!	!	!	!	!	!	!	!	!	!	!	!	!	!	!	!	!	!
4Ret/	.	4.C/	.	4C/	.	4c\	.	4e/	.	4cc/	wdzięcz-	.	4.c/	.	4.e 4.G/	.	(4cc/	.	4cc/	4.e\	.	4.C/	.	4.ee\	4.cc\	.	4.cc/	4.g\	.	4.ee\	.	(4ccc\	.
!LO:SIC:s=8C/	!	!	!	!	!	!	!	!	!	!	!	!	!	!	!	!	!	!	!	!	!	!	!	!	!	!	!	!	!	!	!	!	!
8Re/	.	.	.	8C/	.	8c\	.	8e/	.	8g/	-nych	.	.	.	.	.	8g/)	.	8g/	.	.	.	.	.	.	.	.	.	.	.	.	8gg\)	.
8r	.	8r	.	8r	.	8r	.	8r	.	8r	.	.	8r	.	8r	.	8r	.	8rcc	8rc	.	8r	.	8r	8ryy	.	8r	8ryy	.	8r	.	8r	.
*	*	*	*	*	*	*	*	*	*	*	*	*	*	*	*	*	*	*	*	*	*	*	*	*v	*v	*	*	*	*	*	*	*	*
*	*	*	*	*	*	*	*	*	*	*	*	*	*	*	*	*	*	*	*v	*v	*	*	*	*	*	*v	*v	*	*	*	*	*
!!LO:PB:g=original
=10	=10	=10	=10	=10	=10	=10	=10	=10	=10	=10	=10	=10	=10	=10	=10	=10	=10	=10	=10	=10	=10	=10	=10	=10	=10	=10	=10	=10	=10	=10
*	*	*	*	*	*	*2\right	*	*	*	*	*	*	*	*	*	*	*	*	*	*	*	*	*	*	*	*	*	*	*	*
!	!	!	!	!	!	!	!	!	!	!	!	!	!	!	!	!	!	!	!	!	!LO:TX:a:t=col b&colon;	!	!	!	!	!	!	!	!	!
!LO:SIC:s=2CT/	!	!	!	!	!	!	!	!	!	!	!	!	!	!	!	!	!	!	!LO:TX:t=P:problem:w taktach nr 10-15 zmiana kolejności Trombe z Fagotti	!	!LO:TX:t=P:problem:w taktach nr 10-15 zmiana kolejności Trombe z Fagotti	!	!	!	!	!	!	!	!	!
2Ret/	.	8C\L	.	2C/	.	2c\	.	(4.g/	.	(4.ee\	pie-	.	8c/L	.	8g'/L	.	8ee'\L	.	4.g 4.e/	.	8CL\yy	.	4.ee 4.g/	.	(4.ee 4.g/	.	4.gg\	.	(4.eee\	.
.	.	8C\	.	.	.	.	.	.	.	.	.	.	8C/	.	8g'/	.	(8ee'\	.	.	.	8C\yy	.	.	.	.	.	.	.	.	.
.	.	8E\	.	.	.	.	.	.	.	.	.	.	8E/	.	(8g/	.	(8ee\	.	.	.	8E\yy	.	.	.	.	.	.	.	.	.
.	.	8G\J	.	.	.	.	.	8f/)	.	8dd\)	.	.	8G/J	.	8f/J)	.	8dd\J))	.	8f 8d/	.	8GJ\yy	.	8dd 8f/	.	8dd 8f/)	.	8ff\	.	8ddd\)	.
!LO:SIC:s=4C/	!	!	!	!	!	!	!	!	!	!	!	!	!	!	!	!	!	!	!	!	!	!	!	!	!	!	!	!	!	!
4Re/	.	8c\L	.	4C/	.	4c\	.	4e/	.	4cc\	-ni	.	8c\L	.	8e/L	.	8cc\L	.	4e 4c/	.	8cL\yy	.	4cc 4e/	.	4cc 4e/	.	4ee\	.	4ccc\	.
.	.	8G\	.	.	.	.	.	.	.	.	.	.	8g\	.	8e/	.	8cc\	.	.	.	8G\yy	.	.	.	.	.	.	.	.	.
4r	.	8E\	.	4C/	.	4c\	.	4e/	.	4cc\	ku	.	8e\	.	8e/	.	8cc\	.	4e 4c/	.	8E\yy	.	4cc 4e/	.	4cc 4e/	.	4ee\	.	4ccc\	.
.	.	8C\J	.	.	.	.	.	.	.	.	.	.	8c\J	.	8e/J	.	8cc\J	.	.	.	8CJ\yy	.	.	.	.	.	.	.	.	.
=11	=11	=11	=11	=11	=11	=11	=11	=11	=11	=11	=11	=11	=11	=11	=11	=11	=11	=11	=11	=11	=11	=11	=11	=11	=11	=11	=11	=11	=11	=11
*	*	*	*	*	*	*	*	*	*	*	*	*	*	*	*	*	*	*	*	*	*	*	*^	*	*^	*	*	*	*	*
!LO:SIC:s=4.GG\	!	!LO:TX:t=P:problem:mixed beam	!	!	!	!	!	!	!	!	!	!LO:DY:a	!LO:TX:t=P:problem:mixed beam	!	!	!	!	!LO:DY:a	!	!	!LO:TX:t=P:problem:mixed beam	!	!	!	!	!	!	!	!	!	!	!
4.Re\	.	8GG/L	.	4.G\	.	4.G/	.	4.g/	.	4.b\	To-	.	8G/L	.	8g/L	.	8b'\L	.	4.g 4.G/	.	8GGL/yy	.	4.g/	4.g\	.	4.b 4.g/	2ryy	.	[1gg	.	4.bb\	.
!	!	!	!	!	!	!	!	!	!	!	!	!	!	!	!	!	!	!	!	!	!	!	!	!	!	!	!	!	!	!	!	!LO:HP:a
.	.	8G\	.	.	.	.	.	.	.	.	.	.	8g\	.	8g/	.	8b'\	.	.	.	8G\yy	<	.	.	.	.	.	.	.	.	.	<
.	.	8G\	.	.	.	.	.	.	.	.	.	<	8g\	.	8g/	.	(8b\	.	.	.	8G\yy	.	.	.	.	.	.	.	.	.	.	.
!LO:SIC:s=16GG\LL	!	!	!	!	!	!	!	!	!	!	!	!	!	!	!	!	!	!	!	!	!	!	!	!	!	!	!	!	!	!	!	!
16Re\	.	8G\J	.	8G\	.	8A/	.	8g/	.	8cc\	-bie	.	8g\J	.	8a/J	.	8cc\J)	.	16gLL 16G/	.	8GJ\yy	.	8g/	8g\	.	8cc 8a/	.	.	.	.	8ccc\	.
!LO:SIC:s=16GG\JJ	!	!	!	!	!	!	!	!	!	!	!	!	!	!	!	!	!	!	!	!	!	!	!	!	!	!	!	!	!	!	!	!
16Re\	.	.	.	.	.	.	.	.	.	.	.	.	.	.	.	.	.	.	16gJJ 16G/	.	.	.	.	.	.	.	.	.	.	.	.	.
*	*	*	*	*	*	*	*	*	*	*	*	*	*2\right	*	*	*	*	*	*	*	*	*	*	*	*	*	*	*	*	*	*	*
*	*	*	*	*	*	*	*	*	*	*	*	*	*tremolo	*	*	*	*	*	*	*	*	*	*	*	*	*	*	*	*	*	*	*
!LO:SIC:s=4GG\	!	!LO:TX:t=P:problem:mixed beam	!	!	!	!	!	!	!	!	!	!	!	!	!	!	!	!	!	!	!LO:TX:t=P:problem:mixed beam	!	!	!	!	!	!	!	!	!	!	!
4Re\	.	8GG/L	.	4G\	.	4B\	.	4g/	.	4dd\	się	.	8g\L	.	8b\L	.	8dd\L	.	4g 4G/	.	8GGL/yy	.	4g/	4g\	.	4dd/	4b\	.	.	.	4ddd\	.
.	.	8G\	.	.	.	.	.	.	.	.	.	.	8g\	.	8b\	.	8dd\	.	.	.	8G\yy	.	.	.	.	.	.	.	.	.	.	.
!LO:SIC:s=4GG\	!	!	!	!	!	!	!	!	!	!	!	!	!	!	!	!	!	!	!	!	!	!	!	!	!	!	!	!	!	!	!	!
4Re\	.	8GG/	.	4G\	.	4c\	.	4g/	.	4ee\	wzno-	.	8g\	.	8cc\	.	8ee\	.	4g 4G/	.	8GG/yy	.	4g/	4g\	.	4ee/	4cc\	.	.	.	4eee\	.
.	.	8G\J	.	.	.	.	.	.	.	.	.	[[	8g\J	.	8cc\J	.	8ee\J	.	.	.	8GJ\yy	[[	.	.	.	.	.	.	.	.	.	[[
=12	=12	=12	=12	=12	=12	=12	=12	=12	=12	=12	=12	=12	=12	=12	=12	=12	=12	=12	=12	=12	=12	=12	=12	=12	=12	=12	=12	=12	=12	=12	=12	=12
*	*	*	*	*	*	*	*	*	*	*	*	*	*	*	*	*	*	*	*	*	*^	*	*	*	*	*	*	*	*	*	*	*
*	*	*	*	*2\right	*	*	*	*	*	*	*	*	*	*	*	*	*	*	*	*	*	*	*	*	*	*	*	*	*	*	*	*	*
!LO:SIC:s=2GGT\	!	!LO:TX:t=P:problem:mixed beam	!	!	!	!	!	!	!	!	!	!	!	!	!	!	!	!LO:DY:a	!	!	!LO:TX:t=P:problem:mixed beam	!	!	!	!	!	!	!	!	!	!	!	!LO:HP:a
2Ret\	.	8GG/L	.	2G\	.	(4.d\	.	2g/	.	(4.ff\	-sie-	.	8g\L	.	8dd'\L	.	8ff'\L	.	8gL 8G/	.	8GG/L	2ryy	>	2g/	2g\	.	4.ff/	4.dd\	.	2gg\]	.	(4.fff\	>
.	.	8G\	.	.	.	.	.	.	.	.	.	.	8g\	.	8dd'\	.	8ff'\	.	16gL 16G/	.	8G\	.	.	.	.	.	.	.	.	.	.	.	.
.	.	.	.	.	.	.	.	.	.	.	.	.	.	.	.	.	.	.	16gJJ 16G/	.	.	.	.	.	.	.	.	.	.	.	.	.	.
.	.	8G\	.	.	.	.	.	.	.	.	.	.	8g\	.	(8dd\	.	(8ff\	.	8gL 8G/	.	8G\	.	.	.	.	.	.	.	.	.	.	.	.
.	.	8G\J	.	.	.	8c\)	.	.	.	8ee\)	.	.	8g\J	.	8cc\J)	.	8ee\J)	.	8gJ 8G/	.	8G\J	.	.	.	.	.	8ee/	8cc\	.	.	.	8eee\)	.
*	*	*	*	*	*	*	*	*	*	*	*	*	*	*	*2\right	*	*	*	*	*	*	*	*	*	*	*	*	*	*	*	*	*	*
*	*	*	*	*	*	*	*	*	*	*	*	*	*	*	*tremolo	*	*	*	*	*	*	*	*	*	*	*	*	*	*	*	*	*	*
!LO:SIC:s=4GG\	!	!	!	!	!	!	!	!	!	!	!	!	!	!	!	!	!	!	!	!	!	!	!	!	!	!	!	!	!	!	!	!	!
4Re\	.	8G\L	.	4G\	.	4B\	.	4g/	.	4dd\	-my	.	8g\L	.	8b\L	.	8dd\L	.	4g 4G/	.	4G\	4ryy	.	4g/	4g\	.	4dd/	4b\	.	4gg\	.	4ddd\	]
.	.	8G\J	.	.	.	.	.	.	.	.	.	.	8g\	.	8b\	.	8dd\J	.	.	.	.	.	]	.	.	.	.	.	.	.	.	.	.
!	!	!	!LO:DY:rj	!	!	!	!	!	!LO:DY:rj:a	!	!	!LO:DY:rj:a	!	!	!	!	!	!LO:DY:rj	!	!	!	!	!LO:DY:rj:a	!	!	!	!	!	!LO:DY:rj:a	!	!	!	!
4r	.	8G\L	p	4G\	.	4B\	.	4g/	p	4dd\	przez	p	8g\	.	8b\	p	8dd\L	p	4r	.	4B/	4G\	p	4r	4ryy	.	[4dd/	4b\	p	4r	.	4r	.
.	.	8G\J	.	.	.	.	.	.	.	.	.	.	8g\J	.	8b\J	.	8dd\J	.	.	.	.	.	.	.	.	.	.	.	.	.	.	.	.
*	*	*	*	*	*	*	*	*	*	*	*	*	*	*	*	*	*	*	*	*	*	*	*	*v	*v	*	*	*	*	*	*	*	*
=13	=13	=13	=13	=13	=13	=13	=13	=13	=13	=13	=13	=13	=13	=13	=13	=13	=13	=13	=13	=13	=13	=13	=13	=13	=13	=13	=13	=13	=13	=13	=13	=13
*	*	*tremolo	*	*	*	*	*	*	*	*	*	*	*	*	*	*	*	*	*	*	*	*	*	*	*	*	*	*	*	*	*	*
1r	.	8F#X\L	.	4.F#X\	.	4.A\	.	4.a/	.	4.dd\	Cie-	.	8dL	.	8aL	.	8dd'\L	.	1r	.	2.A/	1F#X	.	1r	.	4.dd/]	1a	.	1r	.	1r	.
.	.	8F#\	.	.	.	.	.	.	.	.	.	.	8d	.	8a	.	8dd'\	.	.	.	.	.	.	.	.	.	.	.	.	.	.	.
.	.	8F#\	.	.	.	.	.	.	.	.	.	.	8d	.	8a	.	(8dd\	.	.	.	.	.	.	.	.	.	.	.	.	.	.	.
.	.	8F#\J	.	8F#\	.	8A\	.	8a/	.	8ee\	-bie	.	8d	.	8a	.	8ee\J)	.	.	.	.	.	.	.	.	8ee/	.	.	.	.	.	.
*	*	*	*	*	*	*	*	*	*	*	*	*	*	*	*	*	*tremolo	*	*	*	*	*	*	*	*	*	*	*	*	*	*	*
.	.	8F#\L	.	4F#\	.	4A\	.	4a/	.	4dd\	wy-	.	8d	.	8a	.	8dd\L	.	.	.	.	.	.	.	.	4dd/	.	.	.	.	.	.
.	.	8F#\	.	.	.	.	.	.	.	.	.	.	8d	.	8a	.	8dd\J	.	.	.	.	.	.	.	.	.	.	.	.	.	.	.
.	.	8F#\	.	4F#\	.	4d\	.	4a/	.	4cc\	-ba-	.	8d	.	8a	.	8cc\L	.	.	.	4d/	.	.	.	.	4cc/	.	.	.	.	.	.
.	.	8F#\J	.	.	.	.	.	.	.	.	.	.	8dJ	.	8aJ	.	8cc\J	.	.	.	.	.	.	.	.	.	.	.	.	.	.	.
*	*	*	*	*	*	*	*	*	*	*	*	*	*	*	*	*	*Xtremolo	*	*	*	*	*	*	*	*	*	*	*	*	*	*	*
=14	=14	=14	=14	=14	=14	=14	=14	=14	=14	=14	=14	=14	=14	=14	=14	=14	=14	=14	=14	=14	=14	=14	=14	=14	=14	=14	=14	=14	=14	=14	=14	=14
*	*	*	*	*	*	*	*	*	*	*	*	*	*	*	*	*	*	*	*^	*	*	*	*	*^	*	*	*	*	*	*	*	*
*	*	*	*	*	*	*	*	*	*	*	*	*	*	*	*	*	*2\right	*	*	*	*	*	*	*	*	*	*	*	*	*	*	*	*	*
*	*	*	*	*	*	*	*	*	*	*2\right	*	*	*	*	*	*	*tremolo	*	*	*	*	*	*	*	*	*	*	*	*	*	*	*	*	*
1r	.	8Fn^<\L	.	2Fn^<\	.	2d\	.	2g/	.	2b\	-wie-	.	8d\L	.	8g/L	.	8b^<\L	.	2r	2ryy	.	(2d/	(>2Fn\	.	2r	2ryy	.	2b/	2g\	.	2r	.	2r	.
.	.	8Fn^<\	.	.	.	.	.	.	.	.	.	.	8d\	.	8g/	.	8b^<\	.	.	.	.	.	.	.	.	.	.	.	.	.	.	.	.	.
.	.	8Fn^<\	.	.	.	.	.	.	.	.	.	.	8d\	.	8g/	.	8b^<\	.	.	.	.	.	.	.	.	.	.	.	.	.	.	.	.	.
.	.	8Fn^<\J	.	.	.	.	.	.	.	.	.	.	8d\J	.	8g/J	.	8b^<\J	.	.	.	.	.	.	.	.	.	.	.	.	.	.	.	.	.
*	*	*	*	*	*	*	*	*	*	*	*	*	*Xtremolo	*	*	*	*	*	*	*	*	*	*	*	*	*	*	*	*	*	*	*	*	*
.	.	8E\L	.	4E\	.	4c\	.	4g/	.	4cc\	-ni	.	8c\L	.	8g/L	.	8cc\L	.	4r	4ryy	.	4c/)	4E\)	.	4r	4ryy	.	4cc/	4g\	.	4r	.	4r	.
*	*	*	*	*	*	*	*	*	*	*	*	*	*	*	*Xtremolo	*	*	*	*	*	*	*	*	*	*	*	*	*	*	*	*	*	*	*
.	.	8E\J	.	.	.	.	.	.	.	.	.	.	8c\J	.	8g/J	.	8cc\J	.	.	.	.	.	.	.	.	.	.	.	.	.	.	.	.	.
!	!	!	!LO:DY:rj	!	!	!	!	!	!	!	!	!LO:DY:a	!	!LO:DY:rj	!	!LO:DY:rj	!	!LO:DY:rj	!	!	!LO:DY:rj	!	!	!	!	!	!	!	!	!LO:DY:rj:a	!	!	!	!LO:DY:rj
.	.	8D\L	f	4D\	.	4d\	.	4a/	.	4ff\	Twój	f	8d\L	f	8aL 8f/	f	8ff\L	f	4ff/	4f\	f	4d/	4D\	.	4dd/	4dd\	.	4ff/	4f 4a\	f	4aa\	.	4fff\	f
.	.	8D\J	.	.	.	.	.	.	.	.	.	.	8d\J	.	8aJ 8f/	.	8ff\J	.	.	.	.	.	.	.	.	.	.	.	.	.	.	.	.	.
*	*	*Xtremolo	*	*	*	*	*	*	*	*	*	*	*	*	*	*	*Xtremolo	*	*	*	*	*	*	*	*	*	*	*	*	*	*	*	*	*
=15	=15	=15	=15	=15	=15	=15	=15	=15	=15	=15	=15	=15	=15	=15	=15	=15	=15	=15	=15	=15	=15	=15	=15	=15	=15	=15	=15	=15	=15	=15	=15	=15	=15	=15
2r	.	8.F\L	.	8.F\	.	8.d\	.	8.f/	.	8.a\	chri-	.	8.d\L	.	8.f/L	.	8.a|\L	.	8.a/L	8.f\L	.	8.dL 8.F\	2ryy	.	8.dd/L	8.dd\L	.	8.a/L	8.f\L	.	8.ff\L	.	8.aa|\L	.
.	.	16F\K	.	16F\	.	16d\	.	16g/	.	16b\	-ste	.	16d\K	.	16g/K	.	16b|\K	.	16b/K	16f\K	.	16dJk 16F\	.	.	16dd/K	16dd\K	.	16b/K	16g\K	.	16gg\K	.	16bb|\K	.
.	.	8.E\	.	8.E\	.	8.c\	.	8.g/	.	8.cc\	zgon	.	8.e 8.c\	.	8.g/	.	8.cc|\	.	8.cc/	8.e\	.	8.cL 8.E\	.	.	8.ee/	8.cc\	.	8.cc/	8.g\	.	8.gg\	.	8.ccc|\	.
.	.	16D\Jk	.	16D\	.	16A\	.	16f/	.	16dd\	świę-	.	16d\Jk	.	16fJk 16A/	.	16dd|\Jk	.	16dd/Jk	16d\Jk	.	16AJk 16D\	.	.	16dd/Jk	16dd\Jk	.	16dd/Jk	16f\Jk	.	16ff\Jk	.	16ddd|\Jk	.
*	*	*tremolo	*	*	*	*	*	*	*	*	*	*	*tremolo	*	*tremolo	*	*	*	*	*	*	*	*	*	*	*	*	*	*	*	*	*	*	*
!LO:SIC:s=4GG\	!	!	!	!	!	!	!	!	!	!	!	!	!	!	!	!	!	!	!	!	!	!	!	!	!	!	!	!	!	!	!	!	!	!
4Re\	.	8G\L	.	(4G\	.	(4c\	.	(4e/	.	[4ee\	-cie-	.	8c\L	.	8e 8G/L	.	[4ee\	.	[4ee/	4g\	.	4c/	4G\	.	4ee/	4cc\	.	4cc/	4e\	.	[4ee\	.	[4eee\	.
.	.	8G\J	.	.	.	.	.	.	.	.	.	.	8c\J	.	8e 8G/J	.	.	.	.	.	.	.	.	.	.	.	.	.	.	.	.	.	.	.
!LO:SIC:s=4GG\	!	!	!	!	!	!	!	!	!	!	!	!	!	!	!	!	!	!	!	!	!	!	!	!	!	!	!	!	!	!	!	!	!	!
4Re\	.	8GG/L	.	4GG/)	.	4B\)	.	4f/)	.	8.ee\L]	.	.	8B\L	.	8f 8G/L	.	8.ee\L]	.	8.ee/L]	4g\	.	4B 4GG/	4ryy	.	4dd 4g/	4ryy	.	4b/	4f\	.	8.ee\L]	.	8.eee\L]	.
.	.	8GG/J	.	.	.	.	.	.	.	.	.	.	8B\J	.	8f 8G/J	.	.	.	.	.	.	.	.	.	.	.	.	.	.	.	.	.	.	.
.	.	.	.	.	.	.	.	.	.	16dd\Jk	.	.	.	.	.	.	16dd\Jk	.	16dd/Jk	.	.	.	.	.	.	.	.	.	.	.	16dd\Jk	.	16ddd\Jk	.
*	*	*Xtremolo	*	*	*	*	*	*	*	*	*	*	*Xtremolo	*	*Xtremolo	*	*	*	*	*	*	*	*	*	*	*	*	*	*	*	*	*	*	*
*	*	*	*	*	*	*	*	*	*	*	*	*	*	*	*	*	*	*	*v	*v	*	*v	*v	*	*v	*v	*	*	*	*	*	*	*	*
!!LO:PB:g=original
=16	=16	=16	=16	=16	=16	=16	=16	=16	=16	=16	=16	=16	=16	=16	=16	=16	=16	=16	=16	=16	=16	=16	=16	=16	=16	=16	=16	=16	=16	=16	=16
!LO:SIC:s=4C/	!	!	!	!	!	!	!	!	!	!	!	!	!	!	!	!	!	!	!LO:TX:a:t=Trombe	!	!LO:TX:a:t=Fagotti	!	!	!	!	!	!	!	!	!	!
4Re/	.	8C/	.	4C/	my.	4c\	.	4e/	.	4cc\	-my	.	8c\	.	8e 8G/	.	8cc|\	.	4cc 4e/	.	4C 4c\	.	4cc 4e/	.	4cc 4e/	1re	.	4cc\	.	4ccc\	.
.	.	(8c\L	.	.	.	.	.	.	.	.	.	.	(8c\L	.	(8cc\L	.	(8cc\L	.	.	.	.	.	.	.	.	.	.	.	.	.	.
4r	.	8d\	.	4r	.	4r	.	4r	.	4r	.	.	8d\	.	8dd\	.	8dd\	.	4r	.	4r	.	4r	.	4r	.	.	4r	.	4r	.
.	.	8c\J	.	.	.	.	.	.	.	.	.	.	8c\J	.	8cc\J	.	8cc\J	.	.	.	.	.	.	.	.	.	.	.	.	.	.
2r	.	8B-X\L	.	2r	.	4r	.	4r	.	4r	.	.	8B-X/L	.	8b-X/L	.	8b-X/L	.	2r	.	2r	.	2r	.	4r	.	.	4r	.	4r	.
.	.	8A\	.	.	.	.	.	.	.	.	.	.	8A/	.	8a/	.	8a/	.	.	.	.	.	.	.	.	.	.	.	.	.	.
!	!	!	!	!	!	!	!	!	!	!LO:TX:a:i:t=Solo dolce	!	!	!	!	!	!	!	!	!	!	!	!	!	!	!LO:TX:a:t=1o.	!	!	!	!	!	!LO:DY:t=dolce e piano:dur=4q:ext=s
.	.	8G\	.	.	.	4c\	.	4cc\	.	4cc\	Ze-	.	8G/	.	8g/	.	8g/	.	.	.	.	.	.	.	4cc/	.	.	4cc\	.	4ccc\	p
.	.	8c\J)	.	.	.	.	.	.	.	.	.	.	8c/J)	.	8cc/J)	.	8cc/J)	.	.	.	.	.	.	.	.	.	.	.	.	.	.
=17	=17	=17	=17	=17	=17	=17	=17	=17	=17	=17	=17	=17	=17	=17	=17	=17	=17	=17	=17	=17	=17	=17	=17	=17	=17	=17	=17	=17	=17	=17	=17
*	*	*	*	*	*	*	*	*	*	*	*	*	*tremolo	*	*tremolo	*	*	*	*	*	*	*	*	*	*	*	*	*	*	*	*
!	!	!	!	!	!	!	!	!	!	!	!	!	!	!LO:DY:rj:a	!	!	!	!LO:DY:rj	!	!	!	!	!	!	!	!	!	!	!	!	!
1r	.	4F\	p	1r	.	4.f\	.	4.a/	.	4.ff\	-bra-	.	8f\L	p	8a/L	.	8ff'\L	p	1r	.	1r	.	1r	.	1ff	1re	.	2aa\	.	4.fff|\	.
.	.	.	.	.	.	.	.	.	.	.	.	.	8f\	.	8a/	.	8ff'\	.	.	.	.	.	.	.	.	.	.	.	.	.	.
.	.	4r	.	.	.	.	.	.	.	.	.	.	8f\	.	8a/	.	(8ff\	.	.	.	.	.	.	.	.	.	.	.	.	.	.
.	.	.	.	.	.	8f\	.	8a/	.	8cc\	-ni	.	8f\J	.	8a/J	.	8cc\J)	.	.	.	.	.	.	.	.	.	.	.	.	8ccc|\	.
*	*	*	*	*	*	*	*	*	*	*	*	*	*Xtremolo	*	*Xtremolo	*	*	*	*	*	*	*	*	*	*	*	*	*	*	*	*
.	.	8F\	.	.	.	4f\	.	4b-X/	.	4dd\	dziś	.	8r	.	8r	.	8r	.	.	.	.	.	.	.	.	.	.	4bb-X\	.	(4ddd\	.
.	.	8r	.	.	.	.	.	.	.	.	.	.	8f\	.	8b-X/	.	8dd\	.	.	.	.	.	.	.	.	.	.	.	.	.	.
.	.	8F\	.	.	.	4f\	.	4a/	.	4cc\	po-	.	8r	.	8r	.	8r	.	.	.	.	.	.	.	.	.	.	4aa\	.	4ccc\)	.
.	.	8r	.	.	.	.	.	.	.	.	.	.	8f\	.	8a/	.	8cc\	.	.	.	.	.	.	.	.	.	.	.	.	.	.
=18	=18	=18	=18	=18	=18	=18	=18	=18	=18	=18	=18	=18	=18	=18	=18	=18	=18	=18	=18	=18	=18	=18	=18	=18	=18	=18	=18	=18	=18	=18	=18
1r	.	4F\	.	1r	.	2f\	.	(4.g#X/	.	(4.bn\	-spo-	.	8r	.	8r	.	8r	.	1r	.	1r	.	1r	.	2.ff/	1re	.	(4.gg#X\	.	(4.bbn\	>
.	.	.	.	.	.	.	.	.	.	.	.	.	8f\L	.	8g#X'/L	.	8bn'\L	>	.	.	.	.	.	.	.	.	.	.	.	.	.
.	.	4r	.	.	.	.	.	.	.	.	.	.	8f\	.	(8g#/	.	(8b\	.	.	.	.	.	.	.	.	.	.	.	.	.	.
.	.	.	.	.	.	.	.	8a/)	.	8cc\)	.	.	8f\J	.	8a/J)	.	8cc\J)	]	.	.	.	.	.	.	.	.	.	8aa\)	.	8ccc\	]
!	!	!	!	!	!	!	!	!	!	!	!	!	!	!	!	!	!	!	!	!	!	!	!	!	!	!	!	!LO:N:vis=2	!	!LO:N:vis=2	!
.	.	4F\	.	.	.	4f\	.	4f/	.	4a/	-łu	.	8r	.	8r	.	8r	.	.	.	.	.	.	.	.	.	.	4ff\	.	4aa\)	.
*	*	*	*	*	*	*	*	*	*	*	*	*	*tremolo	*	*	*	*	*	*	*	*	*	*	*	*	*	*	*	*	*	*
.	.	.	.	.	.	.	.	.	.	.	.	.	8f\L	.	8f/L	.	8a/L	.	.	.	.	.	.	.	.	.	.	.	.	.	.
.	.	4r	.	.	.	4f\	.	4f/	.	4a/	skła-	.	8f\	.	8f/	.	8a/	.	.	.	.	.	.	.	4ff/	.	.	4ff|\	.	4aa|\	.
.	.	.	.	.	.	.	.	.	.	.	.	.	8f\J	.	8f/J	.	8a/J	.	.	.	.	.	.	.	.	.	.	.	.	.	.
=19	=19	=19	=19	=19	=19	=19	=19	=19	=19	=19	=19	=19	=19	=19	=19	=19	=19	=19	=19	=19	=19	=19	=19	=19	=19	=19	=19	=19	=19	=19	=19
!	!	!	!	!	!	!	!	!	!	!	!	!	!	!	!	!	!	!	!	!	!	!	!	!	!LO:N:vis=2	!	!	!	!	!	!
1r	.	4C/	.	1r	.	4.c\	.	4.e/	.	4.g/	-da-	.	8r	.	8r	.	8r	.	1r	.	1r	.	1r	.	2.cc/	1re	.	(4.ee\	.	(4.gg\	.
.	.	.	.	.	.	.	.	.	.	.	.	.	8c/L	.	8e'/L	.	8g'/L	.	.	.	.	.	.	.	.	.	.	.	.	.	.
.	.	4r	.	.	.	.	.	.	.	.	.	.	8c/	.	(8e/	.	(8g/	.	.	.	.	.	.	.	.	.	.	.	.	.	.
.	.	.	.	.	.	8c\	.	8f/	.	8a/	-my	.	8c/J	.	8f/J)	.	8a/J)	.	.	.	.	.	.	.	.	.	.	8ff\	.	8aa\	.
*	*	*	*	*	*	*	*	*	*	*	*	*	*Xtremolo	*	*	*	*	*	*	*	*	*	*	*	*	*	*	*	*	*	*
.	.	8C/	.	.	.	4c\	.	4g/	.	4b-X/	Ci	.	8r	.	8r	.	8r	.	.	.	.	.	.	.	.	.	.	4gg\)	.	4bb-X\)	.
.	.	8r	.	.	.	.	.	.	.	.	.	.	8c/	.	8g/	.	8b-X\	.	.	.	.	.	.	.	.	.	.	.	.	.	.
.	.	8C/	.	.	.	4c\	.	4e/	.	4cc/	o-	.	8r	.	8r	.	8r	.	.	.	.	.	.	.	4cc/	.	.	4ee\	.	4ccc\	.
!	!	!LO:TX:a:t=V&colon;C&colon;	!	!	!	!	!	!	!	!	!	!	!	!	!	!	!	!	!	!	!	!	!	!	!	!	!	!	!	!	!
.	.	8r	.	.	.	.	.	.	.	.	.	.	8c/	.	8e/	.	8cc\	.	.	.	.	.	.	.	.	.	.	.	.	.	.
=20	=20	=20	=20	=20	=20	=20	=20	=20	=20	=20	=20	=20	=20	=20	=20	=20	=20	=20	=20	=20	=20	=20	=20	=20	=20	=20	=20	=20	=20	=20	=20
*	*	*^	*	*	*	*	*	*	*	*	*	*	*	*	*	*	*	*	*	*	*	*	*	*	*	*	*	*	*	*	*
1r	.	4.F/	4F\	.	2r	.	(4.F/	.	2f/	.	2a/	-fia-	.	8r	.	8r	.	8r	.	1r	.	1r	.	1r	.	(<4.f/	1re	.	(2ff\	.	(2aa\	.
.	.	.	.	.	.	.	.	.	.	.	.	.	.	8c/L	.	8f/L	.	8a/L	.	.	.	.	.	.	.	.	.	.	.	.	.	.
.	.	.	4r	.	.	.	.	.	.	.	.	.	.	8c/	.	8f/	.	8a/	.	.	.	.	.	.	.	.	.	.	.	.	.	.
.	.	8A/	.	.	.	.	8A/)	.	.	.	.	.	.	8c/J	.	8f/J	.	8a/J	.	.	.	.	.	.	.	8a/)	.	.	.	.	.	.
.	.	4c/	4C\	.	4r	.	4c\	.	4e/	.	4g/	-ry	.	4c/	.	4e/	.	4g/	.	.	.	.	.	.	.	4cc/	.	.	4ee\)	.	4gg\)	.
.	.	4C/	4C\	.	4C/	Z_je-	4r	.	4r	.	4r	.	.	4r	.	4r	.	4r	.	.	.	.	.	.	.	4r	.	.	4r	.	4r	.
*	*	*v	*v	*	*	*	*	*	*	*	*	*	*	*	*	*	*	*	*	*	*	*	*	*	*	*v	*v	*	*	*	*	*
!!LO:PB:g=original
=21	=21	=21	=21	=21	=21	=21	=21	=21	=21	=21	=21	=21	=21	=21	=21	=21	=21	=21	=21	=21	=21	=21	=21	=21	=21	=21	=21	=21	=21	=21
1r	.	4.F\	.	4.F\	-dne-	1r	.	2r	.	2r	.	.	1r	.	2r	.	2r	.	1r	.	1r	.	1r	.	1r	.	2r	.	2r	.
.	.	8E\	.	8E\	-go	.	.	.	.	.	.	.	.	.	.	.	.	.	.	.	.	.	.	.	.	.	.	.	.	.
.	.	4D\	.	4D\	Oy-	.	.	4r	.	4r	.	.	.	.	4r	.	4r	.	.	.	.	.	.	.	.	.	4r	.	4r	.
.	.	4C\	.	4C\	-ca	.	.	4f/	.	4f/	Z_je-	.	.	.	4f/	.	4f/	.	.	.	.	.	.	.	.	.	4ff\	.	4ff\	.
=22	=22	=22	=22	=22	=22	=22	=22	=22	=22	=22	=22	=22	=22	=22	=22	=22	=22	=22	=22	=22	=22	=22	=22	=22	=22	=22	=22	=22	=22	=22
1r	.	2.BB-X/	.	2.BB-X/	[[sto]]_Oy-	1r	.	4.dd\	.	4.ff\	-dne-	.	1r	.	4.dd\	.	4.ff\	.	1r	.	1r	.	1r	.	1r	.	(4.ddd\	.	(4.fff\	.
.	.	.	.	.	.	.	.	8cc\	.	8ee\	-go	.	.	.	8cc\	.	8ee\	.	.	.	.	.	.	.	.	.	8ccc\	.	8eee\	.
.	.	.	.	.	.	.	.	4b-X\	.	4dd\	Oy-	.	.	.	4b-X\	.	4dd\	.	.	.	.	.	.	.	.	.	4bb-X\)	.	4ddd\)	.
.	.	4F\	.	4F\	-ca	.	.	4a\	.	4cc\	-ca	.	.	.	4a\	.	4cc\	.	.	.	.	.	.	.	.	.	4aa\	.	4ccc\	.
=23	=23	=23	=23	=23	=23	=23	=23	=23	=23	=23	=23	=23	=23	=23	=23	=23	=23	=23	=23	=23	=23	=23	=23	=23	=23	=23	=23	=23	=23	=23
*	*	*	*	*	*	*	*	*	*	*	*	*	*	*	*	*	*	*	*	*	*^	*	*	*	*^	*	*	*	*	*
1r	.	4G\	.	(4G\	sto-	2r	.	(4d/	.	(4.cc\	sto-	.	2r	.	(4d/	.	(4.cc\	.	1r	.	2r	1rGG	.	1r	.	2r	1re	.	(4dd\	.	(4.ccc\	.
.	.	4C/	.	4C/)	.	.	.	4e/)	.	.	.	.	.	.	4e/)	.	.	.	.	.	.	.	.	.	.	.	.	.	4ee\	.	.	.
.	.	.	.	.	.	.	.	.	.	8b-X\)	.	.	.	.	.	.	8b-X\)	.	.	.	.	.	.	.	.	.	.	.	.	.	8bb-X\)	.
!	!	!	!	!	!	!	!	!	!	!	!	!	!	!	!	!	!	!	!	!	!LO:TX:a:t=1o.	!	!	!	!	!	!	!	!	!	!	!
.	.	(4D/	.	4D/	-łu	4r	.	4f/	.	4a/	-łu	.	4r	.	(4f/	.	4a/	.	.	.	4r	.	.	.	.	4r	.	.	4ff\	.	4aa\	.
!	!	!	!	!	!	!	!	!	!	!	!	!	!	!	!	!	!	!	!	!	!	!	!LO:DY:rj	!	!	!	!	!	!	!	!	!
.	.	4C#X/	.	4C#X/	Jed-	4A\	Jed-	4e/	.	4a/	Jed-	.	4A/	.	4e/)	.	4a/	.	.	.	4c#X\	.	p	.	.	4a/	.	.	4ee\)	.	4aa\	.
=24	=24	=24	=24	=24	=24	=24	=24	=24	=24	=24	=24	=24	=24	=24	=24	=24	=24	=24	=24	=24	=24	=24	=24	=24	=24	=24	=24	=24	=24	=24	=24	=24
1r	.	4D/	.	4D/	-na-	4A\	-na-	4f/	.	4a/	-na-	.	2A/	.	(4f/	.	[2a/	.	1r	.	(4d\	1rGG	.	1r	.	(2a/	1re	.	(4ff\	.	[2aa\	.
.	.	4Cn/	.	4Cn/	-kie	4A\	-kie	4e/	.	4a/	-kie	.	.	.	4e/	.	.	.	.	.	4cn\	.	.	.	.	.	.	.	4ee\	.	.	.
.	.	4BB-X/	.	4BB-X/	bie-	4B-X\	bie-	4d/	.	(8a/L	bie-	.	(4B-X\	.	4d/)	.	(8a/L]	.	.	.	4B-X\)	.	.	.	.	4b-X/)	.	.	4dd\)	.	(8aa\L]	.
.	.	.	.	.	.	.	.	.	.	8g/J)	.	.	.	.	.	.	8g/J)	.	.	.	.	.	.	.	.	.	.	.	.	.	8gg\J)	.
.	.	4GG/)	.	4GG/	-rzem	4d\	-rzem	8g/L	.	(8b-X\L	-rzem	.	4d\)	.	(8g/L	.	(8b-X\L	.	.	.	4G\	.	.	.	.	4dd/	.	.	(8gg\L	.	8bb-X\L	.
.	.	.	.	.	.	.	.	8b-X/J	.	8dd\J)	.	.	.	.	8b-X/J)	.	8dd\J)	.	.	.	.	.	.	.	.	.	.	.	8bb-X\J)	.	8ddd\J	.
=25	=25	=25	=25	=25	=25	=25	=25	=25	=25	=25	=25	=25	=25	=25	=25	=25	=25	=25	=25	=25	=25	=25	=25	=25	=25	=25	=25	=25	=25	=25	=25	=25
*	*	*	*	*	*	*	*	*	*	*	*	*	*^	*	*	*	*	*	*	*	*	*	*	*	*	*	*	*	*	*	*	*
*	*	*	*	*	*	*	*	*	*	*	*	*	*	*^	*	*	*	*	*	*	*	*	*	*	*	*	*	*	*	*	*	*	*
1r	.	1C	.	2C/	da-	(2c\	da-	(>2f/	.	(>2a/	da-	.	(2c/	2c\	2ryy	.	(2f/	.	(>2a/	.	1r	.	2c\	2rEE	.	1r	.	[1cc	2cc\	.	2ff\	.	(2aa\	.
.	.	.	.	.	.	.	.	.	.	(8qa/	.	.	.	.	.	.	(8qf/	.	(8qa/	.	.	.	.	.	.	.	.	.	.	.	8qff/	.	(8qaa/	.
.	.	.	.	(4.C/	.	4.B-X\	.	(4.e/	.	4.g/)	.	.	2c/	4.B-X\	4.B-X/	.	4.e/)	.	4.g/)	.	.	.	2C/	2C\	.	.	.	.	4.b-X\	.	4.ee\	.	4.gg\)	.
.	.	.	.	8F\)	.	8A\)	.	8f/))	.	8f/	.	.	.	8A\)	8A/	.	8f/)	.	8f/)	.	.	.	.	.	.	.	.	.	8a\	.	8ff\	.	8ff\)	.
.	.	.	.	.	.	.	.	.	.	.	.	.	.	.	.	.	.	.	.	<	.	.	.	.	.	.	.	.	.	.	.	.	.	.
*	*	*	*	*	*	*	*	*	*	*	*	*	*	*v	*v	*	*	*	*	*	*	*	*v	*v	*	*	*	*	*	*	*	*	*	*
=26	=26	=26	=26	=26	=26	=26	=26	=26	=26	=26	=26	=26	=26	=26	=26	=26	=26	=26	=26	=26	=26	=26	=26	=26	=26	=26	=26	=26	=26	=26	=26	=26
*	*	*	*	*	*	*	*	*	*	*	*	*	*	*	*	*	*	*	*	*^	*	*	*	*	*	*	*	*	*	*	*	*
!	!	!	!	!	!	!	!	!	!	!	!	!	!	!	!	!	!	!	!	!	!	!	!LO:TX:a:t=due	!	!	!	!	!	!	!	!	!	!
2r	.	4.F\	<	4F\	-ry.	4A\	-ry	4f/	.	4f/)	-ry,	.	2c/	4.A\	.	4.f/	.	4.f/	.	2r	2ryy	.	4.F\	.	2r	.	4cc/]	4a\	.	4ff\	.	4ff\	.
.	.	.	.	4r	.	4r	.	4r	.	4r	.	.	.	.	.	.	.	.	.	.	.	.	.	.	.	.	4r	2ryy	.	4r	.	4r	.
.	.	8E\	.	.	.	.	.	.	.	.	.	.	.	8G\	.	8g/	.	8g/	.	.	.	.	8E\	.	.	.	.	.	.	.	.	.	.
4r	.	4D\	[	4r	.	4r	.	4r	.	4r	.	.	4d/	4d 4A\	.	4f/	.	4a/	[	4r	4ryy	.	4D\	.	4r	.	4r	.	.	4r	.	4r	.
!LO:SIC:s=4GG\	!	!	!LO:DY:rj	!	!	!	!	!	!	!	!	!	!	!	!	!	!	!	!LO:DY:rj	!	!	!	!	!LO:DY:rj	!	!LO:DY:rj	!	!	!LO:DY:rj	!	!LO:DY:rj	!	!LO:DY:rj
4Re\	.	4GG/	f	4G\	Spraw	4G/	.	4g/	.	4g/	Spraw	.	4d/	4Bn\	.	4f 4G/	.	4g/	f	4g/	4f\	.	4G 4GG\	f	4dd 4g/	f	4bn 4g/	4ryy	f	4dd\	f	4gg\	f
*	*	*	*	*	*	*	*	*	*	*	*	*	*v	*v	*	*	*	*	*	*v	*v	*	*	*	*	*	*v	*v	*	*	*	*	*
!!LO:PB:g=original
=27	=27	=27	=27	=27	=27	=27	=27	=27	=27	=27	=27	=27	=27	=27	=27	=27	=27	=27	=27	=27	=27	=27	=27	=27	=27	=27	=27	=27	=27	=27
!	!	!	!	!	!	!	!	!	!	!	!	!	!	!	!	!	!	!	!	!	!	!	!	!	!	!	!	!	!LO:TX:t=P:problem:brak nut w taktach nr 27-33	!
1ryy	.	1ryy	.	4C/	.	4c\	.	4e/	.	4g/	Bo-	.	1ryy	.	1ryy	.	1ryy	.	1ryy	.	1ryy	.	1ryy	.	1ryy	.	1ryy	.	1ryy	.
.	.	.	.	8C/	.	8c\	.	8c/	.	8e/	-że	.	.	.	.	.	.	.	.	.	.	.	.	.	.	.	.	.	.	.
.	.	.	.	8r	.	8r	.	8r	.	8r	.	.	.	.	.	.	.	.	.	.	.	.	.	.	.	.	.	.	.	.
.	.	.	.	4C/	.	4c\	.	4e/	.	4cc\	by-	.	.	.	.	.	.	.	.	.	.	.	.	.	.	.	.	.	.	.
.	.	.	.	8C/	.	8c\	.	8e/	.	8g/	-śmy	.	.	.	.	.	.	.	.	.	.	.	.	.	.	.	.	.	.	.
.	.	.	.	8r	.	8r	.	8r	.	8r	.	.	.	.	.	.	.	.	.	.	.	.	.	.	.	.	.	.	.	.
=28	=28	=28	=28	=28	=28	=28	=28	=28	=28	=28	=28	=28	=28	=28	=28	=28	=28	=28	=28	=28	=28	=28	=28	=28	=28	=28	=28	=28	=28	=28
1ryy	.	1ryy	.	2C/	.	2c\	.	(4.g/	.	(4.ee\	zgo-	.	1ryy	.	1ryy	.	1ryy	.	1ryy	.	1ryy	.	1ryy	.	1ryy	.	1ryy	.	1ryy	.
.	.	.	.	.	.	.	.	8f/)	.	8dd\)	.	.	.	.	.	.	.	.	.	.	.	.	.	.	.	.	.	.	.	.
.	.	.	.	4C/	.	4c\	.	4e/	.	4cc\	-dni	.	.	.	.	.	.	.	.	.	.	.	.	.	.	.	.	.	.	.
.	.	.	.	4C/	.	4c\	.	4e/	.	4cc\	Jak	.	.	.	.	.	.	.	.	.	.	.	.	.	.	.	.	.	.	.
=29	=29	=29	=29	=29	=29	=29	=29	=29	=29	=29	=29	=29	=29	=29	=29	=29	=29	=29	=29	=29	=29	=29	=29	=29	=29	=29	=29	=29	=29	=29
1ryy	.	1ryy	.	4.G\	.	4.G/	.	4.g/	.	4.b\	bra-	.	1ryy	.	1ryy	.	1ryy	.	1ryy	.	1ryy	.	1ryy	.	1ryy	.	1ryy	.	1ryy	.
.	.	.	.	8G\	.	8A\	.	8g/	.	8cc\	-cia	.	.	.	.	.	.	.	.	.	.	.	.	.	.	.	.	.	.	.
.	.	.	.	4G\	.	4B\	.	4g/	.	4dd\	wie-	.	.	.	.	.	.	.	.	.	.	.	.	.	.	.	.	.	.	.
.	.	.	.	4G\	.	4c\	.	4g/	.	4ee\	-cznie	.	.	.	.	.	.	.	.	.	.	.	.	.	.	.	.	.	.	.
=30	=30	=30	=30	=30	=30	=30	=30	=30	=30	=30	=30	=30	=30	=30	=30	=30	=30	=30	=30	=30	=30	=30	=30	=30	=30	=30	=30	=30	=30	=30
*	*	*	*	*2\right	*	*	*	*	*	*	*	*	*	*	*	*	*	*	*	*	*	*	*	*	*	*	*	*	*	*
1ryy	.	1ryy	.	2G\	.	(4.d\	.	2g/	.	(4.ff\	ży-	.	1ryy	.	1ryy	.	1ryy	.	1ryy	.	1ryy	.	1ryy	.	1ryy	.	1ryy	.	1ryy	.
.	.	.	.	.	.	8c\)	.	.	.	8ee\)	.	.	.	.	.	.	.	.	.	.	.	.	.	.	.	.	.	.	.	.
.	.	.	.	4G\	.	4B\	.	4g/	.	4dd\	-li	.	.	.	.	.	.	.	.	.	.	.	.	.	.	.	.	.	.	.
!	!	!	!	!	!	!	!	!	!	!	!	!LO:DY:a	!	!	!	!	!	!	!	!	!	!	!	!	!	!	!	!	!	!
.	.	.	.	4G\	.	4B\	.	4g/	.	4dd\	o-	p	.	.	.	.	.	.	.	.	.	.	.	.	.	.	.	.	.	.
=31	=31	=31	=31	=31	=31	=31	=31	=31	=31	=31	=31	=31	=31	=31	=31	=31	=31	=31	=31	=31	=31	=31	=31	=31	=31	=31	=31	=31	=31	=31
1ryy	.	1ryy	.	4.F#X\	.	4.A\	.	4.a/	.	4.dd\	-fia-	.	1ryy	.	1ryy	.	1ryy	.	1ryy	.	1ryy	.	1ryy	.	1ryy	.	1ryy	.	1ryy	.
.	.	.	.	8F#\	.	8A\	.	8a/	.	8ee\	-ry	.	.	.	.	.	.	.	.	.	.	.	.	.	.	.	.	.	.	.
.	.	.	.	4F#\	.	4A\	.	4a/	.	4dd\	Two-	.	.	.	.	.	.	.	.	.	.	.	.	.	.	.	.	.	.	.
.	.	.	.	4F#\	.	4d\	.	4a/	.	4cc\	-iej	.	.	.	.	.	.	.	.	.	.	.	.	.	.	.	.	.	.	.
=32	=32	=32	=32	=32	=32	=32	=32	=32	=32	=32	=32	=32	=32	=32	=32	=32	=32	=32	=32	=32	=32	=32	=32	=32	=32	=32	=32	=32	=32	=32
!	!	!	!	!	!	!	!	!LO:TX:a:t=P:problem:diminuendolike accent	!	!LO:TX:a:t=P:problem:diminuendolike accent	!	!	!	!	!	!	!	!	!	!	!	!	!	!	!	!	!	!	!	!
1ryy	.	1ryy	.	2Fn\	.	2d\	.	2g^>/	.	2b^\	go-	.	1ryy	.	1ryy	.	1ryy	.	1ryy	.	1ryy	.	1ryy	.	1ryy	.	1ryy	.	1ryy	.
.	.	.	.	4E\	.	4c\	.	4g/	.	4cc\	-dni	.	.	.	.	.	.	.	.	.	.	.	.	.	.	.	.	.	.	.
!	!	!	!	!	!	!	!	!	!LO:DY:rj:a	!	!	!LO:DY:rj	!	!	!	!	!	!	!	!	!	!	!	!	!	!	!	!	!	!
.	.	.	.	4D\	.	4d\	.	4a/	f	4ff\	Na-	f	.	.	.	.	.	.	.	.	.	.	.	.	.	.	.	.	.	.
!!LO:PB:g=original
=33	=33	=33	=33	=33	=33	=33	=33	=33	=33	=33	=33	=33	=33	=33	=33	=33	=33	=33	=33	=33	=33	=33	=33	=33	=33	=33	=33	=33	=33	=33
1ryy	.	1ryy	.	8.F\	u-	8.d\	.	8.f/	.	8.a\	-u-	.	1ryy	.	1ryy	.	1ryy	.	1ryy	.	1ryy	.	1ryy	.	1ryy	.	1ryy	.	1ryy	.
.	.	.	.	16F\	-ki	16d\	.	16g/	.	16b\	-ki	.	.	.	.	.	.	.	.	.	.	.	.	.	.	.	.	.	.	.
.	.	.	.	8.E\	Twe	8.c\	.	8.g/	.	8.cc\	Twe	.	.	.	.	.	.	.	.	.	.	.	.	.	.	.	.	.	.	.
.	.	.	.	16D\	peł-	16A\	.	16f/	.	16dd\	peł-	.	.	.	.	.	.	.	.	.	.	.	.	.	.	.	.	.	.	.
.	.	.	.	(4G\	-ni-	4c\	.	(4e/	.	[4ee\	-ni-	.	.	.	.	.	.	.	.	.	.	.	.	.	.	.	.	.	.	.
.	.	.	.	4GG/)	.	4B\	.	4f/)	.	8.ee\L]	.	.	.	.	.	.	.	.	.	.	.	.	.	.	.	.	.	.	.	.
.	.	.	.	.	.	.	.	.	.	16dd\Jk	.	.	.	.	.	.	.	.	.	.	.	.	.	.	.	.	.	.	.	.
=34	=34	=34	=34	=34	=34	=34	=34	=34	=34	=34	=34	=34	=34	=34	=34	=34	=34	=34	=34	=34	=34	=34	=34	=34	=34	=34	=34	=34	=34	=34
*	*	*	*	*	*	*	*	*	*	*	*	*	*	*	*	*	*	*	*^	*	*	*	*	*	*	*	*	*	*	*
!LO:SIC:s=2C/	!	!	!	!	!	!	!	!	!	!	!	!	!	!	!	!	!	!	!	!	!	!	!	!	!	!	!	!	!	!	!
2Re/	.	2C/	.	2C/	-li	2c\	.	2e/	.	2cc\	-li.	.	2c\	.	2e 2G/	.	2cc\	.	2cc/	2g\	.	2c 2C\	.	2cc 2e/	.	2cc 2e/	.	2cc\	.	2ccc\	.
2r	.	2r	.	2r	.	2r	.	2r	.	2r	.	.	2r	.	16r	.	16r	.	2r	2ryy	.	2r	.	2r	.	2r	.	2r	.	2r	.
.	.	.	.	.	.	.	.	.	.	.	.	.	.	.	(16c/LL	.	(16c/LL	.	.	.	.	.	.	.	.	.	.	.	.	.	.
.	.	.	.	.	.	.	.	.	.	.	.	.	.	.	16B/	.	16B/	.	.	.	.	.	.	.	.	.	.	.	.	.	.
.	.	.	.	.	.	.	.	.	.	.	.	.	.	.	16c/JJ	.	16c/JJ	.	.	.	.	.	.	.	.	.	.	.	.	.	.
.	.	.	.	.	.	.	.	.	.	.	.	.	.	.	16d/LL	.	16d/LL	.	.	.	.	.	.	.	.	.	.	.	.	.	.
.	.	.	.	.	.	.	.	.	.	.	.	.	.	.	16e/	.	16e/	.	.	.	.	.	.	.	.	.	.	.	.	.	.
.	.	.	.	.	.	.	.	.	.	.	.	.	.	.	16f/	.	16f/	.	.	.	.	.	.	.	.	.	.	.	.	.	.
.	.	.	.	.	.	.	.	.	.	.	.	.	.	.	16g/JJ)	.	16g/JJ)	.	.	.	.	.	.	.	.	.	.	.	.	.	.
*	*	*	*	*	*	*	*	*	*	*	*	*	*	*	*	*	*	*	*v	*v	*	*	*	*	*	*	*	*	*	*	*
=35	=35	=35	=35	=35	=35	=35	=35	=35	=35	=35	=35	=35	=35	=35	=35	=35	=35	=35	=35	=35	=35	=35	=35	=35	=35	=35	=35	=35	=35	=35
!LO:TX:b:B:t=adagio.	!	!	!LO:DY:rj	!	!	!	!	!	!	!	!	!	!	!	!	!	!LO:TX:a:B:t=adagio	!LO:DY:rj	!	!	!	!LO:DY:rj	!	!	!	!	!	!LO:DY:rj	!LO:TX:a:B:t=adagio	!LO:DY:rj
1r	.	4FF/	p	1F	A-	1c	.	1f	.	1a	A-	.	1f 1A	.	8f/	.	8a\	p	1r	.	1A 1F	p <	1r	.	1cc 1f	<	1ff	p	1aa	p
!	!	!	!LO:HP:a	!	!	!	!	!	!	!	!	!	!	!	!	!	!	!	!	!	!	!	!	!	!	!	!	!	!	!
.	.	.	<	.	.	.	.	.	.	.	.	.	.	.	4a/	.	4cc\	<	.	.	.	.	.	.	.	.	.	<	.	<
.	.	4F\	.	.	.	.	.	.	.	.	.	.	.	.	.	.	.	.	.	.	.	.	.	.	.	.	.	.	.	.
.	.	.	.	.	.	.	.	.	.	.	.	.	.	.	4cc/	.	4ff\	.	.	.	.	.	.	.	.	.	.	.	.	.
.	.	4F\	.	.	.	.	.	.	.	.	.	.	.	.	.	.	.	.	.	.	.	.	.	.	.	.	.	.	.	.
.	.	.	.	.	.	.	.	.	.	.	.	.	.	.	4a/	.	4cc\	.	.	.	.	.	.	.	.	.	.	.	.	.
.	.	4F\	.	.	.	.	.	.	.	.	.	.	.	.	.	.	.	.	.	.	.	.	.	.	.	.	.	.	.	.
.	.	.	[	.	.	.	.	.	.	.	.	.	.	.	8f/	.	8a\	[[	.	.	.	[	.	.	.	[	.	[	.	[
=36	=36	=36	=36	=36	=36	=36	=36	=36	=36	=36	=36	=36	=36	=36	=36	=36	=36	=36	=36	=36	=36	=36	=36	=36	=36	=36	=36	=36	=36	=36
!LO:SIC:s=2CT</	!	!	!LO:HP:a	!	!	!	!	!	!	!	!	!	!	!	!	!	!	!	!	!	!	!	!LO:N:vis=2	!	!	!	!	!	!	!
2Ret</	.	1C	>	1C	-men	1c	.	1e	.	1g	-men.	.	1e 1c	.	1e 1G	.	1g	>	1e 1c	>	1G 1E	>	1cc 1e/	>	1cc 1e	.	1ee	>	1gg;	>
!LO:SIC:s=4C/	!	!	!	!	!	!	!	!	!	!	!	!	!	!	!	!	!	!	!	!	!	!	!	!	!	!	!	!	!	!
4Re/	.	.	.	.	.	.	.	.	.	.	.	.	.	.	.	.	.	.	.	.	.	.	.	.	.	.	.	.	.	.
4r	.	.	]	.	.	.	.	.	.	.	.	.	.	.	.	.	.	]	.	]	.	]	.	]	.	.	.	]	.	]
==	==	==	==	==	==	==	==	==	==	==	==	==	==	==	==	==	==	==	==	==	==	==	==	==	==	==	==	==	==	==
*-	*-	*-	*-	*-	*-	*-	*-	*-	*-	*-	*-	*-	*-	*-	*-	*-	*-	*-	*-	*-	*-	*-	*-	*-	*-	*-	*-	*-	*-	*-
!!!system-decoration: <(g1,s6)><({s7,s8}s9)>{g2}s14,s15
!!!RDF**kern: > = above
!!!RDF**kern: < = below
!!!RDF**kern: | = vertical stroke
!!!ENC: Andrzej Kubiczek
!!!END: 2021-04-25
!!!ENC: Andrzej Gręziak
!!!END: 2021-04-09
